X:1
T:James Gibb editions
T:Rorate coeli, SWV 322 - Schütz
T:#
%%score [ 1 2 3 ] 4
L:1/8
Q:1/4=108
M:4/4
K:C
V:1 treble nm="Soprano I" snm="S I"
V:2 treble nm="Soprano II" snm="S II"
V:3 treble nm="Bass" snm="B"
V:4 bass nm="Continuo"
V:1
 z8 | z8 | z8 | z8 | z8 | z8 ||[K:F][M:4/4][K:treble] z8 | z2 d2 B2 Gd | B2 G2 _e4 | d4 c3 c | %10
w: |||||||Ro- ra- te, ro-|ra- te coe-|li de- su-|
 B2 d2 cBAG | F2 F2 E2 D2 | (D2 ^C2) D2 z d | =cBAG A4 | G4 z4 | z d B2 GdBG | B2 B2 z2 z f | %17
w: per et nu- bes plu- ant|ju- stum, plu- ant|ju\- * stum, et|nu- bes plu- ant ju-|stum,|ro- ra- te, ro- ra- te|coe- li, ro-|
 d2 Bf d2 B2 | f2 f2 z4 | z2 g2 f_edc | d4 c4 | z8 | z8 | z ddd d2 A2 | %24
w: ra- te, ro- ra- te|coe- li|et nu- bes plu- ant|ju- stum,|||a- pe- ri- a- tur|
 G2 GG (A3/2=B/4c/4 B3/2c/4d/4 | c>)!courtesy!_B AA (=B3/2c/4d/4 ^c3/2d/4e/4 | d>)c =B2 ^c2 d2 | %27
w: ter- ra et ger\- * * * * *|* mi- net, et ger\- * * * * *|* mi- net Sal- va-|
 (d2 ^c2) d4 | z8 | z8 | z fff f2 c2 | B2 B2 z2 F2 | (G3/2A/4B/4 A3/2B/4c/4 B>)A G2 | z8 | %34
w: to\- * rem,|||a- pe- ri- a- tur|ter- ra et|ger\- * * * * * * mi- net||
 c2 B2 A4 | G4 z4 | z ddd d2 A2 | G2 G2 z4 | z2 c2 (d3/2e/4f/4 e3/2f/4g/4 | f>)e d2 c2 B2 | %40
w: Sal- va- to-|rem,|a- pe- ri- a- tur|ter- ra|et ger\- * * * * *|* mi- net Sai- va-|
 (A2 G4 ^F2) | G8 | z8 | z8 | z8 | z8 | z8 | z4 z2 d2 | B2 Gd B2 G2 | _e4 d4 | c3 c B4 | z4 z dcB | %52
w: to\- * *|rem.||||||Ro-|ra- te, ro- ra- te|coe- li|de- su- per|et nu- bes|
 AG A2 G4 | z d B2 Ad B2 | A4 B2 B2 | (d>_e d>e d>e dc/B/ | A>B A>B A3) G | G4 z4 | %58
w: plu- ant ju- stum,|ro- ra- te, ro- ra-|te coe- li|de\- * * * * * * * *|* * * * * su-|per,|
 (d>_e d>e d>e d>c | B>c B>c B>c B>A |[Q:1/4=105] G6[Q:1/4=103] A2 | %61
w: de\- * * * * * * *|||
[Q:1/4=100] B6[Q:1/4=98] c[Q:1/4=97]d |[Q:1/4=95] _e6)[Q:1/4=92] e2 |[Q:1/4=92] !fermata!d8 |] %64
w: |* su-|per.|
V:2
[K:F]"^Rorate coeli, SWV 322""^Heinrich Schütz\n(1585-1672)" z4 z2 G2 | ^F2 DG F2 D2 | B4 A4 | %3
w: Ro-|ra- te, ro- ra- te|coe- li|
 G3 =F F2 z A | GFED (^CD/E/ D2- | D2 ^C2) D2 z d || cBAG (^FG/A/ G2- | G2 ^F2) Gd B2 | %8
w: de- su- per et|nu- bes plu- ant ju\- * * *|* * stum, et|nu- bes plu- ant ju\- * * *|* * stum, ro- ra-|
 Gd B2 G2 c2- | c2 B2 B3 A | B2 z2 z4 | z2 A2 GFED | E2 E2 DEFG | (E>F G4 ^F2) | G4 z2 z d | %15
w: te, ro- ra- te coe\-|* ii de- su-|per|et nu- bes plu- ant|ju- stum, nu- bes plu- ant|ju\- * * *|stum, ro-|
 B2 Gd B2 G2 | d2 d2 z4 | z f d2 BfdB | d2 df _edcB | A2 G2 =B2 c2 | (c2 =B2) c4 | z8 | z8 | z8 | %24
w: ra- te, ro- ra- te|coe- li,|ro- ra- te, ro- ra- te|coe- li et nu- bes plu- ant|ju- stum, plu- ant|ju\- * stum,||||
 z8 | z8 | z4 z AAA | A2 E2 D2 DD | (E3/2^F/4G/4 F3/2G/4A/4 G>)=F EE | %29
w: ||a- pe- ri-|a- tur ter- ra et|ger\- * * * * * * mi- net, et|
 (F3/2G/4A/4 G3/2A/4B/4 A>)G F2 | A2 B2 (B2 A2) | B4 z4 | z2 c2 (d3/2e/4f/4 e3/2f/4g/4 | %33
w: ger\- * * * * * * mi- net|Sal- va- to\- *|rem,|et ger\- * * * * *|
 f>)e d2 c2 B2 | (A2 G4 ^F2) | G4 z4 | z BBB B2 ^F2 | G2 G2 z2 !courtesy!=F2 | %38
w: * mi- net Sal- va-|to\- * *|rem,|a- pe- ri- a- tur|ter- ra et|
 (G3/2A/4B/4 A3/2B/4c/4 B>)A G2 | z8 | c2 B2 A4 | G8 | z8 | z8 | z8 | z8 | z2 A2 F2 DA | F2 D2 B4 | %48
w: ger\- * * * * * * mi- net||Sal- va- to-|rem.|||||Ro- ra- te, ro-|ra- te coe-|
 Gd B2 Gd B2 | G2 c4 B2 | B3 A B2 z d | cBAG (^FG/A/ G2- | G2 ^F2) Gd B2 | A2 d4 d2 | %54
w: li, ro- ra- te, ro- ra-|te coe- li|de- su- per et|nu- bes plu- ant ju\- * * *|* * stum, ro- ra-|te coe- li|
 (d>_e d>e d>e dc/B/ | A>B A>B A>B A>G | ^FG/A/ G4) F2 | G4 z4 | z8 | (d>_e d>e d>e d>c | %60
w: de\- * * * * * * * *||* * * * su-|per,||de\- * * * * * * *|
 B>c B>c B>c B>A | G6 A=B | c6) c2 | !fermata!=B8 |] %64
w: ||* su-|per.|
V:3
 z8 | z8 | z8 | z8 | z8 | z8 ||[K:F][M:4/4][K:bass] z8 | z8 | z2 G,2 _E,2 C,2 | G,2 B,2 F,3 F, | %10
w: ||||||||Ro- ra- te|coe- ii de- su-|
 B,,2 B,2 A,G,F,E, | D,2 D,2 G,,2 B,,2 | A,,4 D,4 | z8 | z G,G,G, G,2 D,2 | G,,2 G,,2 z4 | %16
w: per et nu- bes plu- ant|ju- stum, plu- ant|ju- stum,||a- pe- ri- a- tur|ter- ra,|
 z B,B,B, B,2 F,2 | B,,2 B,,2 z4 | z8 | z4 z G,G,G, | G,2 G,,2 C,2 C,C, | %21
w: a- pe- rii- a- tur|ter- ra,||a- pe- ri-|a- tur ter- ra et|
 (D,3/2E,/4F,/4 E,3/2F,/4G,/4 F,>)E, D,D, | (E,3/2^F,/4G,/4 F,3/2G,/4A,/4 G,>)=F, E,2 | %23
w: ger\- * * * * * * mi- net, et|ger\- * * * * * * mi- net|
 ^F,2 G,2 (G,2 F,2) | G,4 z4 | z8 | z8 | z8 | z8 | z8 | z8 | %31
w: Sal- va- to\- *|rem,|||||||
 z2 B,,2 (C,3/2D,/4_E,/4 D,3/2E,/4F,/4 | _E,>)D, C,2 z4 | z8 | F,2 B,,2 D,4 | G,,G,G,G, G,2 D,2 | %36
w: et ger\- * * * * *|* mi- net||Sal- va- to-|rem, a- pe- ri- a- tur|
 G,,2 G,,2 z4 | z2 G,,2 (C,3/2D,/4_E,/4 D,3/2E,/4F,/4 | _E,>)D, C,2 z4 | z8 | F,2 B,,2 D,4 | %41
w: ter- ra|et ger\- * * * * *|* mi- net||Sail va- to-|
 G,,4 z2 G,2 | ^F,2 D,G, F,2 D,2 | B,4 A,4 | G,3 G, F,2 F,2 | G,A,B,G, (A,>E, F,>D, | A,4) D,4 | %47
w: rem. Ro-|ra- te, ro- ra- te|coe- li|de- su- per et|nu- bes plu- ant ju\- * * *|* stum,|
 z8 | z4 z2 G,2 | _E,2 C,2 G,2 B,2 | F,3 F, B,,2 B,,2 | C,D,_E,C, D,4- | D,4 G,,4 | %53
w: |ro-|ra- te coe- li|de- su- per et|nu- bes plu- ant ju\-|* stum,|
 z2 z G, ^F,2 D,G, | ^F,2 D,2 G,4- | G,4 ^F,4 | z4 z2 D,2 | B,,2 G,,D, B,,2 G,,2 | B,8 | G,4 z4 | %60
w: ro- ra- te, ro-|ra- te coe\-|* li,|ro-|ra- te, ro- ra- te|coe-|li|
 (G,>A, G,>A, G,>A, G,>F, | _E,>F, E,>F, E,>F, E,>D, | C,6) C,2 | !fermata!G,,8 |] %64
w: de\- * * * * * * *||* su-|per.|
V:4
[K:F] G,2 ^F,2 D,G, _E,2 | D,2 G,,2 D,2 B,,2 | G,,A,,B,,C, D,E, F,2 | C,4 F,,2 D,2 | %4
w: ||||
 G,,2 B,,2 A,,2 F,,2 | G,,2 A,,2 D,2 B,,2 || C,2 _E,2 D,2 B,,2 | C,2 D,2 G,,4- | %8
w: * * * 6||* * * 6||
 G,,2 G,2 _E,2 C,2 | G,2 B,2 x2- x2 | B,,2 B,2 A,G,F,E, | D,4 G,,2 B,,2 | x2- x2 D,2 B,,2 | %13
w: |* * 4||* 6 *|4 * *|
 C,2 _E,2 x2- x2 | G,,4 G,2 D,2 | G,,4 G,,4 | B,4 B,2 F,2 | B,,4 B,,4- | B,,2 B,2 _E,2 G,2 | %19
w: * * 4||||||
 F,2 _E,2 x2- x2 | x2- x2 C,4 | =B,,2 C,2 F,,2 G,,2 | C,2 D,2 G,,2 C,2 | D,2 B,,2 x2- x2 | %24
w: |4 *|||* 6 4|
 G,,2 G,2 ^F,2 G,2 | C,2 D,2 G,2 A,2 | D,2 G,2 A,2 F,2 | x2- x2 D,2 =B,,2 | C,2 D,2 _E,2 C,2 | %29
w: ||* * * 6|4 * *||
 D,2 =E,2 F,2 D,2 | F,2 B,,2 x2- x2 | B,,4 C,2 D,2 | _E,2 C,2 B,,2 C,2 | D,2 B,,2 A,,2 G,,2 | %34
w: |* * 4||* 6 * *||
 F,,2 G,,2 x2- x2 | G,,4 G,2 D,2 | G,,4 B,,2 D,2 | G,,2 G,,2 C,2 D,2 | _E,2 C,2 B,,2 C,2 | %39
w: * * 4|||||
 D,2 B,,2 A,,2 G,,2 | F,,2 G,,2 x2- x2 | G,,4 G,4 | ^F,2 D,G, F,2 D,2 | B,4 A,4 | G,4 F,2 F,2 | %45
w: |* * 4|||||
 G,A,B,G, (x2- x2 | x2) x2 D,4 | D,4 G,,4 | G,,6 G,2 | _E,2 C,2 G,2 B,2 | x2- x2 B,,2 B,,2 | %51
w: |||||4 * *|
 C,D,_E,C, (x2- x2 | x2) x2 G,,2 G,2 | ^F,2 G,2 D,2 G,,2 | D,2 ^F,2 G,4- | G,4 ^F,4 | x2- x4 x2 | %57
w: ||||2 *||
 G,,8 | B,8 | G,8 | G,6 F,2 | _E,6 D,2 | C,8 | !fermata!G,,8 |] %64
w: |||||||

